static/images/hero-seo/star-rating.svg

<svg width="232" height="45" viewBox="0 0 232 45" fill="none" xmlns="http://www.w3.org/2000/svg">
<path d="M7.20218 23.7509C6.7449 23.7509 6.34918 23.8081 6.01501 23.9224C5.42582 24.1334 4.98173 24.5248 4.68274 25.0964L1.30589 24.9381L2.65135 14.3722H13.1908V17.5644H5.36866L4.68274 21.7459C5.26313 21.3678 5.71602 21.1171 6.04139 20.994C6.58661 20.7918 7.25055 20.6906 8.0332 20.6906C9.6161 20.6906 10.9967 21.2227 12.1751 22.2867C13.3535 23.3508 13.9427 24.8985 13.9427 26.9299C13.9427 28.6975 13.3755 30.276 12.2411 31.6654C11.1067 33.0548 9.40944 33.7495 7.14942 33.7495C5.32909 33.7495 3.83413 33.2615 2.66454 32.2854C1.49496 31.3092 0.844212 29.9242 0.712304 28.1303H4.45849C4.60799 28.9481 4.89379 29.5812 5.3159 30.0297C5.738 30.4694 6.35357 30.6893 7.16261 30.6893C8.09476 30.6893 8.80267 30.3639 9.28633 29.7132C9.77879 29.0536 10.025 28.227 10.025 27.2333C10.025 26.2572 9.79637 25.4349 9.33909 24.7666C8.88181 24.0895 8.16951 23.7509 7.20218 23.7509ZM16.7259 29.3174H20.7228V33.2483H16.7259V29.3174ZM29.9959 33.7232C27.56 33.7232 25.8496 32.8702 24.8647 31.1641C23.8886 29.4581 23.4005 27.0266 23.4005 23.8696C23.4005 20.7126 23.8886 18.2767 24.8647 16.5619C25.8496 14.8471 27.56 13.9897 29.9959 13.9897C32.4318 13.9897 34.1422 14.8471 35.1271 16.5619C36.1032 18.2767 36.5913 20.7126 36.5913 23.8696C36.5913 27.0266 36.0988 29.4581 35.1139 31.1641C34.1378 32.8702 32.4318 33.7232 29.9959 33.7232ZM32.1988 28.9085C32.5417 27.7477 32.7132 26.0681 32.7132 23.8696C32.7132 21.5656 32.5373 19.8596 32.1856 18.7516C31.8426 17.6436 31.1127 17.0896 29.9959 17.0896C28.8791 17.0896 28.1404 17.6436 27.7798 18.7516C27.4193 19.8596 27.239 21.5656 27.239 23.8696C27.239 26.0681 27.4193 27.7521 27.7798 28.9217C28.1404 30.0825 28.8791 30.6629 29.9959 30.6629C31.1127 30.6629 31.847 30.0781 32.1988 28.9085Z" fill="black"/>
<path d="M59.6357 27.4649L69.4639 33.3968L66.8557 22.2168L75.5389 14.6946L64.1045 13.7086L59.6357 3.18066L55.1669 13.7086L43.7324 14.6946L52.3997 22.2168L49.8075 33.3968L59.6357 27.4649Z" fill="#ED2F24"/>
<path d="M97.8036 27.4649L107.632 33.3968L105.024 22.2168L113.707 14.6946L102.272 13.7086L97.8036 3.18066L93.3348 13.7086L81.9004 14.6946L90.5677 22.2168L87.9754 33.3968L97.8036 27.4649Z" fill="#ED2F24"/>
<path d="M135.974 27.4649L145.802 33.3968L143.194 22.2168L151.877 14.6946L140.442 13.7086L135.974 3.18066L131.505 13.7086L120.07 14.6946L128.738 22.2168L126.145 33.3968L135.974 27.4649Z" fill="#ED2F24"/>
<path d="M174.14 27.4649L183.968 33.3968L181.36 22.2168L190.043 14.6946L178.608 13.7086L174.14 3.18066L169.671 13.7086L158.236 14.6946L166.904 22.2168L164.311 33.3968L174.14 27.4649Z" fill="#ED2F24"/>
<path d="M212.308 27.4649L222.136 33.3968L219.528 22.2168L228.211 14.6946L216.776 13.7086L212.308 3.18066L207.839 13.7086L196.404 14.6946L205.072 22.2168L202.479 33.3968L212.308 27.4649Z" fill="#ED2F24"/>
</svg>

<svg xmlns="http://www.w3.org/2000/svg" width="232" height="45" fill="none" viewBox="0 0 232 45"><path fill="#000" d="m7.2 23.8-1.2.1q-.9.3-1.3 1.2l-3.4-.2 1.4-10.5h10.5v3.2H5.4l-.7 4.1L6 21q1-.3 2-.3a6 6 0 0 1 4.2 1.6q1.7 1.6 1.7 4.6 0 2.7-1.7 4.8t-5 2q-2.8 0-4.5-1.4a6 6 0 0 1-2-4.2h3.8q.2 1.2.8 2 .6.6 1.9.6 1.4 0 2-1a4 4 0 0 0 .8-2.5q0-1.5-.7-2.4-.6-1-2.1-1m9.5 5.5h4v4h-4zM30 33.7q-3.7 0-5.1-2.5-1.5-2.6-1.5-7.3 0-4.8 1.5-7.3Q26.4 14 30 14t5.1 2.6a15 15 0 0 1 1.5 7.3q0 4.7-1.5 7.3T30 33.7m2.2-4.8q.5-1.7.5-5 0-3.4-.5-5.1T30 17t-2.2 1.7-.6 5 .6 5.1q.4 1.8 2.2 1.8 1.6 0 2.2-1.8"/><path fill="#ed2f24" d="m59.6 27.5 9.9 5.9-2.6-11.2 8.6-7.5-11.4-1-4.5-10.5-4.4 10.5-11.5 1 8.7 7.5-2.6 11.2zm38.2 0 9.8 5.9-2.6-11.2 8.7-7.5-11.4-1-4.5-10.5-4.5 10.5-11.4 1 8.7 7.5L88 33.4zm38.2 0 9.8 5.9-2.6-11.2 8.7-7.5-11.5-1L136 3.2l-4.5 10.5-11.4 1 8.6 7.5-2.6 11.2zm38.1 0 9.9 5.9-2.6-11.2 8.6-7.5-11.4-1-4.5-10.5-4.4 10.5-11.5 1 8.7 7.5-2.6 11.2zm38.2 0 9.8 5.9-2.6-11.2 8.7-7.5-11.4-1-4.5-10.5-4.5 10.5-11.4 1 8.7 7.5-2.6 11.2z"/></svg>
